src/assets/icons/app-logo-placeholder.svg

<svg fill="none" height="800" viewBox="0 0 800 800" width="800" xmlns="http://www.w3.org/2000/svg"><circle cx="400" cy="400" fill="#d6d6d6" r="400"/><g clip-rule="evenodd" fill="#a0a0a0" fill-rule="evenodd"><path d="m289.241 265.19c-13.283 0-24.051 10.768-24.051 24.051v221.518c0 13.283 10.768 24.051 24.051 24.051h221.518c13.283 0 24.051-10.768 24.051-24.051v-221.518c0-13.283-10.768-24.051-24.051-24.051zm-39.241 24.051c0-21.672 17.569-39.241 39.241-39.241h221.518c21.672 0 39.241 17.569 39.241 39.241v221.518c0 21.672-17.569 39.241-39.241 39.241h-221.518c-21.672 0-39.241-17.569-39.241-39.241z"/><path d="m344.62 328.481c-8.913 0-16.139 7.226-16.139 16.139 0 8.914 7.226 16.139 16.139 16.139 8.914 0 16.139-7.225 16.139-16.139 0-8.913-7.225-16.139-16.139-16.139zm-31.329 16.139c0-17.302 14.027-31.329 31.329-31.329 17.303 0 31.329 14.027 31.329 31.329 0 17.303-14.026 31.329-31.329 31.329-17.302 0-31.329-14.026-31.329-31.329z"/><path d="m457.921 362.984c2.966-2.966 7.775-2.966 10.741 0l79.114 79.114c2.966 2.966 2.966 7.775 0 10.741s-7.775 2.966-10.741 0l-73.744-73.744-168.68 168.68c-2.966 2.966-7.775 2.966-10.741 0s-2.966-7.774 0-10.74z"/></g></svg>

<svg width="800" height="800" viewBox="0 0 800 800" fill="none" xmlns="http://www.w3.org/2000/svg">
<circle cx="400" cy="400" r="400" fill="#D6D6D6"/>
<path fill-rule="evenodd" clip-rule="evenodd" d="M289.241 265.19C275.958 265.19 265.19 275.958 265.19 289.241V510.759C265.19 524.042 275.958 534.81 289.241 534.81H510.759C524.042 534.81 534.81 524.042 534.81 510.759V289.241C534.81 275.958 524.042 265.19 510.759 265.19H289.241ZM250 289.241C250 267.569 267.569 250 289.241 250H510.759C532.431 250 550 267.569 550 289.241V510.759C550 532.431 532.431 550 510.759 550H289.241C267.569 550 250 532.431 250 510.759V289.241Z" fill="#A0A0A0"/>
<path fill-rule="evenodd" clip-rule="evenodd" d="M344.62 328.481C335.707 328.481 328.481 335.707 328.481 344.62C328.481 353.534 335.707 360.759 344.62 360.759C353.534 360.759 360.759 353.534 360.759 344.62C360.759 335.707 353.534 328.481 344.62 328.481ZM313.291 344.62C313.291 327.318 327.318 313.291 344.62 313.291C361.923 313.291 375.949 327.318 375.949 344.62C375.949 361.923 361.923 375.949 344.62 375.949C327.318 375.949 313.291 361.923 313.291 344.62Z" fill="#A0A0A0"/>
<path fill-rule="evenodd" clip-rule="evenodd" d="M457.921 362.984C460.887 360.018 465.696 360.018 468.662 362.984L547.776 442.098C550.742 445.064 550.742 449.873 547.776 452.839C544.81 455.805 540.001 455.805 537.035 452.839L463.291 379.095L294.611 547.775C291.645 550.741 286.836 550.741 283.87 547.775C280.904 544.809 280.904 540.001 283.87 537.035L457.921 362.984Z" fill="#A0A0A0"/>
</svg>
